X: 846
T: Run, Johnny, Run
B: jims roots
M:2/2
L:1/8
Q: 1/2=100
K:Dmaj
V:1 
A2-|: "D"AdBc d2dd | "A"cded AcBA | "D"FGAc d2dd | "A"cded "D"d2A2- |
   "D"AdBc d2dd | "A"cded AcBA | "D"FGAc dcde | "A"fdef "D"d2A2- :|
|: "D"ABAF D2DF | "A"EDED FGA2 | "D"ABAF DFDF | "A"EDEF "D"D2D2- |
   "D"ABAF D2DF | "A"EDED FGA2 | "D"ABAG FDFD | [1"A"EDEF "D"D2D2- :|[2 "A"EDEF "D"D2A2-
% abcbook-tune_id 6298c287205d94db8dae2e35


% abcbook-boost 0
% abcbook-tablature 
% abcbook-transpose 
% abcbook-lastupdated 1654178439877
% abcbook-soundfonts 
% abcbook-repeats 1


